X: 87
T:Rhisiart Annwyl
T:Sweet Richard
M:4/4
L:1/8
Q:130
C:Trad
S:Blodau'r Grug Collection Vol. 1
R:Set Dance
A:Wales
Z:brian_martin12345@yahoo.com
K:G
DG GA/G/ FA2 B|GA/B/ c/B/A/G/ Fd2c|B>c de dc B2|1c/B/A/G/ F/G/A/F/ 
\"aG4:||21c/B/A/G/ F/G/A/F/ G3||
(3d/e/f/|gg ga/g/ f>e df/g/|ag fe fd dc/B/|ce2d/c/ Bd2c/B/|!cB AG Fe dc|
B>c de dc B>d|c/B/A/G/ F/G/A/B/ G2G:||
